X: 15832
T: Gorman's
R: reel
M: 4/4
K: Dmixolydian
|:A4 A2dB|cAAG EFGE|A4 A2dB|cAGE EDD2|
A4 A2dB|cAAG EFGE|A4 A2dB|cAGE EDD2:|
|:Add^c d2AB|cdef gfed|Add^c dcAB|cAGE EDD2|
Add^c d2AB|cdef gfeg|fde^c d2ed|cAGE EDD2:|

